src/pound.svg

<?xml version="1.0" encoding="utf-8"?>
<!-- Generated by IcoMoon.io -->
<!DOCTYPE svg PUBLIC "-//W3C//DTD SVG 1.1//EN" "http://www.w3.org/Graphics/SVG/1.1/DTD/svg11.dtd">
<svg version="1.1" xmlns="http://www.w3.org/2000/svg" xmlns:xlink="http://www.w3.org/1999/xlink" width="512" height="512" viewBox="0 0 512 512">
<path fill="#000000" d="M125.2 352.3h-93.2v-54.6h101.2l13.1-83.3h-99.3v-54.6h107.2l21.8-127.8h63.9l-21.8 127.7h105.6l21.8-127.7h63.1l-21.8 127.7h93.2v54.6h-101.9l-12.3 83.3h99.2v54.6h-106.5l-22.5 127.8h-63.1l21.8-127.7h-106.4l-21.8 127.7h-63.1l21.8-127.7zM209.4 214.3l-12.4 83.4h105.6l12.3-83.3h-105.5z"></path>
</svg>

<?xml version="1.0" encoding="utf-8"?>
<!-- Generator: Adobe Illustrator 16.2.1, SVG Export Plug-In . SVG Version: 6.00 Build 0)  -->
<!DOCTYPE svg PUBLIC "-//W3C//DTD SVG 1.1//EN" "http://www.w3.org/Graphics/SVG/1.1/DTD/svg11.dtd">
<svg version="1.1" id="Layer_1" xmlns="http://www.w3.org/2000/svg" xmlns:xlink="http://www.w3.org/1999/xlink" x="0px" y="0px"
	 width="512px" height="512px" viewBox="0 0 512 512" style="enable-background:new 0 0 512 512;" xml:space="preserve">
<g>
	<path d="M125.2,352.3H32v-54.6h101.2l13.1-83.3H47v-54.6h107.2L176,32h63.9l-21.8,127.7h105.6L345.5,32h63.1l-21.8,127.7H480v54.6
		H378.1l-12.3,83.3H465v54.6H358.5L336,480h-63.1l21.8-127.7H188.3L166.5,480h-63.1L125.2,352.3z M209.4,214.3L197,297.7h105.6
		l12.3-83.3H209.4z"/>
</g>
</svg>
